Adwaita++/status/16/network-wired-acquiring.svg

<svg height="16" width="16.04" xmlns="http://www.w3.org/2000/svg">
  <g fill="#474747">
    <path d="m0 10.988h5.016v4.972h-5.016zm5.024-9.96h5.016v4.972h-5.016zm6 10h5.016v4.972h-5.016z" opacity=".35"/>
    <path d="m3.542 7.04c.829 0 1.496.668 1.496 1.497v.005c0 .829-.667 1.496-1.496 1.496a1.493 1.493 0 0 1 -1.496-1.496v-.005c0-.829.667-1.496 1.496-1.496zm4 0c.829 0 1.496.668 1.496 1.497v.005c0 .829-.667 1.496-1.496 1.496a1.493 1.493 0 0 1 -1.496-1.496v-.005c0-.829.667-1.496 1.496-1.496z" display="block"/>
    <path d="m7.542 7.04c.829 0 1.496.668 1.496 1.497v.005c0 .829-.667 1.496-1.496 1.496a1.493 1.493 0 0 1 -1.496-1.496v-.005c0-.829.667-1.496 1.496-1.496zm4 0c.829 0 1.496.668 1.496 1.497v.005c0 .829-.667 1.496-1.496 1.496a1.493 1.493 0 0 1 -1.496-1.496v-.005c0-.829.667-1.496 1.496-1.496z" display="block"/>
  </g>
</svg>

<svg xmlns="http://www.w3.org/2000/svg" width="16.04" height="16">
    <g fill="#474747">
        <path d="M0 10.988h5.016v4.972H0zM5.024 1.028h5.016V6H5.024zM11.024 11.028h5.016V16h-5.016z" style="isolation:auto;mix-blend-mode:normal;marker:none" color="#bebebe" overflow="visible" opacity=".35"/>
        <path d="M3.542 7.04c.829 0 1.496.668 1.496 1.497v.005c0 .829-.667 1.496-1.496 1.496a1.493 1.493 0 0 1-1.496-1.496v-.005c0-.829.667-1.496 1.496-1.496zM7.542 7.04c.829 0 1.496.668 1.496 1.497v.005c0 .829-.667 1.496-1.496 1.496a1.493 1.493 0 0 1-1.496-1.496v-.005c0-.829.667-1.496 1.496-1.496z" style="isolation:auto;mix-blend-mode:normal;marker:none" color="#000" display="block" overflow="visible"/>
        <path d="M7.542 7.04c.829 0 1.496.668 1.496 1.497v.005c0 .829-.667 1.496-1.496 1.496a1.493 1.493 0 0 1-1.496-1.496v-.005c0-.829.667-1.496 1.496-1.496zM11.542 7.04c.829 0 1.496.668 1.496 1.497v.005c0 .829-.667 1.496-1.496 1.496a1.493 1.493 0 0 1-1.496-1.496v-.005c0-.829.667-1.496 1.496-1.496z" style="isolation:auto;mix-blend-mode:normal;marker:none" color="#000" display="block" overflow="visible"/>
    </g>
</svg>
